!!!COM: Bach, Johann Sebastian
!!!OPR: Joh. Seb. Bachs vierstimmige Choralges‰nge
!!!XEN: Four-part Chorales
!!!OTL: 112. Jesus, meine Zuversicht
!!!SCT: BWV 365
!!!SCA: Thematisch-systematisches Verzeichnis der musikalischen Werke Johann Sebastian Bach: Bach-Werke-Verzeichnis (Schmieder)
!!!YOR: Bach Gesellschaft Edition xxxix
!!!ENC: Steven Rasmussen
!!!CDT: 1685/3//-1750/7/28/
!!!OCY: Deutschland
!!!YEC: Copyright (c) 1994, 2000 Center for Computer Assisted Research in the Humanities
!!!YEM: Rights to all derivative editions reserved
!!!YEN: United States of America
**kern	**kern	**kern	**kern	**silbe
*I:[BASSO]	*I:[TENORE]	*I:[ALTO]	*I:[SOPRANO]	*I:[SOPRANO]
*>[A,A,B]	*>[A,A,B]	*>[A,A,B]	*>[A,A,B,A,A,B,C]	*
*>A	*>A	*>A	*>A	*
*clefF4	*clefGv2	*clefG2	*clefG2	*
*k[]	*k[]	*k[]	*k[]	*
*C:	*C:	*C:	*C:	*
*M4/4	*M4/4	*M4/4	*M4/4	*
=1-	=1-	=1-	=1-	=1-
4C	4c	4e	4g	Je-Die-
8CL	4G	8cL	4e	-sus,-ses
8BBJ	.	8dJ	.	.
4AA	4c	4e	4a	mei-weiss
4GG#	4B	4e	4b	-neich,
=2	=2	=2	=2	=2
8AAL	4A	4e	4cc	Zu-soll
8BBJ	.	.	.	.
8CL	4e	4a	4cc	-ver-ich
8DJ	.	.	.	.
2E;	2e;	(4a	2b;	-sichtnicht
.	.	4g#;)	.	.
=3	=3	=3	=3	=3
4F	4c	4a	8aL	undda-
.	.	.	8bJ	.
4E	8cL	8gL	4cc	mein-rum
.	8GJ	8eJ	.	.
8BBL	8GL	4d	4g	Hei-mich
8GGJ	8BJ	.	.	.
4C	8GL	8dL	4e	-land,zu-
.	8EJ	8GJ	.	.
=4	=4	=4	=4	=4
8AAL	8AL	8cL	4f	ist-frie-
8BBJ	8GJ	8dJ	.	.
4C	4G	8dL	4e	im-den
.	.	8cJ	.	.
4FF	4A	4c	2d	Le-ge-
4GG	8GL	4B	.	.
.	8FJ	.	.	.
=5	=5	=5	=5	=5
1CC;	1E;	1G;	1c;	-ben:-ben?
*	*	*	*>B	*
=6:|!	=6:|!	=6:|!	=6:|!	=6:|!
*>B	*>B	*>B	*>C	*
8CL	4G	4c	4e	Was
8CCJ	.	.	.	.
4C	4A	4d	4f#	die
4BB	8BL	8dL	4g#	lan-
.	8dJ	8fJ	.	.
8CL	8cL	8eL	4a	-ge
8FJ	8AJ	8cJ	.	.
=7	=7	=7	=7	=7
8DL	4.A	8fL	4b	To-
8BBJ	.	8dJ	.	.
4E	.	8BL	4b	-des-
.	8G#	16eL	.	.
.	.	16dJJ	.	.
2AA;	2A;	2c;	2a;	-nacht
=8	=8	=8	=8	=8
8GL	4d	4g	4b	mir
8FJ	.	.	.	.
8EL	4e	4g	4cc	auch
8DJ	.	.	.	.
8CL	4d	4g	4dd	f√ºr
8BBJ	.	.	.	.
8CL	4c	4g	4ee	Ge-
8EJ	.	.	.	.
=9	=9	=9	=9	=9
8FL	4c	8aL	4.dd	-dan-
8DJ	.	8fJ	.	.
4G	4B	8dL	.	.
.	.	16gL	8cc	-ken
.	.	16fJJ	.	.
2C;	2G;	2e;	2cc;	macht.
==|!	==|!	==|!	==|!	==|!
*-	*-	*-	*-	*-
!!!RWG: Key is interpreted using the Humdrum key tool.
!!!URL-pdf: https://s9.imslp.org/files/imglnks/usimg/6/6b/IMSLP24489-PMLP09471-CCARH_Bach_Chorales.pdf#page=78 Musedata edition
!!!URL-pdf: https://s9.imslp.org/files/imglnks/usimg/7/7a/IMSLP04155-Bach_-_BGA_253-438.pdf#page=61 	Bach-Gesellschaft Ausgabe, Band 39 (pp.175-276) Leipzig: Breitkopf und H‰rtel, 1892. Plate B.W. XXXIX.
!!!END: 1994/07/13
!!!EMD: Converted from MuseData to Humdrum Dec 19, 2000, by Andreas Kornstaedt using muse2kern.
!!!EED: Craig Stuart Sapp
!!!EEV: 2024/03/31
!!!ONB: Some non-unicode characters
!!!filter-keyboard: satb2gs
